dist/img/clients.svg

<?xml version="1.0" encoding="UTF-8"?>
<svg width="70px" height="70px" viewBox="0 0 70 70" version="1.1" xmlns="http://www.w3.org/2000/svg" xmlns:xlink="http://www.w3.org/1999/xlink">
    <!-- Generator: Sketch 40 (33762) - http://www.bohemiancoding.com/sketch -->
    <title>Group</title>
    <desc>Created with Sketch.</desc>
    <defs></defs>
    <g id="Page-1" stroke="none" stroke-width="1" fill="none" fill-rule="evenodd">
        <g id="02-doubler-page" transform="translate(-914.000000, -675.000000)" fill="#1A92E2">
            <g id="Group" transform="translate(914.000000, 675.000000)">
                <path d="M48.0969014,43.2282601 C50.0027657,39.710058 50.9987196,35.4825932 50.9987196,31.3560398 C50.9987196,21.3326595 44.3633291,14.0569511 35.2240717,14.0569511 C26.0819462,14.0569511 19.4494238,21.3326595 19.4494238,31.3560398 C19.4494238,35.4825932 20.4439437,39.710058 22.3498079,43.2282601 C15.337977,45.8944822 9.41101152,50.5573074 9.41101152,56.5824358 C9.41101152,57.3133223 9.6856338,58.015377 10.1811012,58.5494863 C16.7691677,65.6471582 25.661767,69.5567523 35.2240717,69.5567523 C44.7849424,69.5567523 53.6789757,65.6471582 60.2656082,58.5494863 C60.7610755,58.0160978 61.0371319,57.3133223 61.0371319,56.5824358 C61.0371319,50.5573074 55.1087324,45.8944822 48.0969014,43.2282601 L48.0969014,43.2282601 Z M35.2240717,19.823314 C42.1197439,19.823314 45.262484,25.8008699 45.262484,31.3560398 C45.262484,37.3422452 42.1477081,45.771947 35.2240717,45.771947 C28.3004353,45.771947 25.1856594,37.3422452 25.1856594,31.3560398 C25.1856594,25.8008699 28.3255314,19.823314 35.2240717,19.823314 L35.2240717,19.823314 Z M35.2240717,63.7903894 C27.7096031,63.7903894 20.6862996,60.8819801 15.3042766,55.5718807 C16.1812036,52.6886993 20.6482971,49.7319967 26.0539821,48.0078542 C28.4811268,50.181773 31.5421255,51.5383099 35.2240717,51.5383099 C38.9045839,51.5383099 41.9655826,50.1810522 44.3912932,48.0078542 C49.7998464,49.7327175 54.2647887,52.6886993 55.1438668,55.5718807 C49.7604097,60.8819801 42.7378233,63.7903894 35.2240717,63.7903894 L35.2240717,63.7903894 Z M35.2240717,0.36039768 C16.2450192,0.36039768 0.806658131,15.8812842 0.806658131,34.958575 C0.806658131,39.8902568 1.8162356,44.6525518 3.80957746,49.1171582 C4.28711908,50.185377 5.33326504,50.8203977 6.42816901,50.8203977 C6.82038412,50.8203977 7.21976953,50.7389478 7.60051216,50.5652361 C9.04604353,49.9136371 9.69137004,48.2075145 9.04317542,46.7543911 C7.38325224,43.0394118 6.54289373,39.0707125 6.54289373,34.958575 C6.54289373,19.0599917 19.4085531,6.12676056 35.2240717,6.12676056 C51.0381562,6.12676056 63.9052497,19.0599917 63.9052497,34.958575 C63.9052497,39.0678293 63.062023,43.0365286 61.404251,46.7529495 C60.7546223,48.2060729 61.4013828,49.9121955 62.8469142,50.5637945 C64.2910115,51.2197183 65.9882202,50.5681193 66.6364149,49.1149959 C68.6304738,44.6496686 69.6414853,39.8873737 69.6414853,34.958575 C69.6414853,15.8812842 54.2016901,0.36039768 35.2240717,0.36039768 L35.2240717,0.36039768 Z" id="Shape"></path>
            </g>
        </g>
    </g>
</svg>

<svg width="70" height="70" viewBox="0 0 70 70" xmlns="http://www.w3.org/2000/svg"><title>Group</title><path d="M48.097 43.228c1.906-3.518 2.902-7.745 2.902-11.872 0-10.023-6.636-17.299-15.775-17.299-9.142 0-15.775 7.276-15.775 17.299 0 4.127.995 8.354 2.9 11.872-7.011 2.666-12.938 7.33-12.938 13.354 0 .731.275 1.433.77 1.967 6.588 7.098 15.48 11.008 25.043 11.008 9.56 0 18.455-3.91 25.042-11.008a2.89 2.89 0 0 0 .771-1.967c0-6.025-5.928-10.688-12.94-13.354zM35.224 19.823c6.896 0 10.038 5.978 10.038 11.533 0 5.986-3.114 14.416-10.038 14.416s-10.038-8.43-10.038-14.416c0-5.555 3.14-11.533 10.038-11.533zm0 43.967c-7.514 0-14.538-2.908-19.92-8.218.877-2.883 5.344-5.84 10.75-7.564 2.427 2.174 5.488 3.53 9.17 3.53 3.68 0 6.742-1.357 9.167-3.53 5.409 1.725 9.874 4.68 10.753 7.564-5.384 5.31-12.406 8.218-19.92 8.218zm0-63.43C16.245.36.807 15.881.807 34.96c0 4.931 1.01 9.694 3.003 14.158a2.87 2.87 0 0 0 2.618 1.703c.392 0 .792-.081 1.173-.255a2.89 2.89 0 0 0 1.442-3.81 28.724 28.724 0 0 1-2.5-11.796c0-15.899 12.866-28.832 28.681-28.832 15.814 0 28.681 12.933 28.681 28.832 0 4.109-.843 8.078-2.5 11.794a2.888 2.888 0 0 0 1.442 3.81 2.857 2.857 0 0 0 3.79-1.448 34.49 34.49 0 0 0 3.004-14.156c0-19.08-15.44-34.6-34.417-34.6z" fill="#1A92E2" fill-rule="evenodd"/></svg>
